static/logos/forethought-wordmark-color.svg

<svg width="100" height="22" viewBox="0 0 100 22" fill="none" xmlns="http://www.w3.org/2000/svg">
<g clip-path="url(#clip0_1_2731)">
<path fill-rule="evenodd" clip-rule="evenodd" d="M5.91253 14.8538C5.91133 19.3444 5.90845 19.3923 5.6006 20.0487C4.89214 21.5588 3.22036 22.0959 1.69359 21.3043C1.18183 21.0389 0.883046 20.7668 0.594513 20.3037C0.594513 20.3037 0.325465 19.9716 0.198374 19.6676C0.0712813 19.3635 0.027182 17.9885 0.0240612 16.9092C0.0207907 15.7782 0.0240612 14.586 0.198374 14.0182C0.284131 13.7388 0.594513 13.3821 0.594513 13.3821C1.10076 12.5692 2.08933 12.017 3.03823 12.017H3.68019V12.8648V13.7126H3.27947C2.79398 13.7126 2.16541 14.0166 2.05373 14.3054C2.00893 14.4215 1.97214 15.5932 1.97214 16.9092C1.97214 16.9092 1.82294 18.9539 1.97214 19.2134C2.12133 19.4729 2.31834 19.5723 2.31834 19.5723C2.77717 19.9308 3.31411 19.9584 3.7665 19.5723C3.7665 19.5723 3.87953 19.5149 4.08047 19.2134C4.2814 18.9119 4.17791 14.7675 4.17791 14.7675L4.21574 10.3214H5.06481H5.91383L5.91253 14.8538Z" fill="url(#paint0_linear_1_2731)"/>
<path fill-rule="evenodd" clip-rule="evenodd" d="M3.67886 4.90856C3.67886 5.71162 3.6626 5.75634 3.36999 5.75634C2.88201 5.75634 2.23991 6.02257 2.09944 6.28316C1.86807 6.71227 1.94914 7.3863 2.26789 7.68357C2.55719 7.95329 2.68479 7.96164 7.1004 7.99973C7.1004 7.99973 10.5844 8.07452 11.25 8.12823C11.9157 8.18194 12.2877 8.37209 12.2877 8.37209C13.1996 8.83825 13.6971 9.57543 13.7694 10.5678C13.8375 11.5032 13.6389 12.1491 13.0934 12.766C12.3397 13.6181 11.9595 13.7064 9.03301 13.7096L6.43808 13.7125V12.8647V12.0169H8.87891C8.87891 12.0169 11.0171 12.0312 11.25 11.943C11.483 11.8549 11.7038 11.6357 11.7038 11.6357C12.1578 11.185 12.2083 10.6285 11.8369 10.1728C11.8369 10.1728 11.6544 10.0136 11.3882 9.94836C11.122 9.88313 6.93197 9.79966 6.93197 9.79966C6.93197 9.79966 3.14277 9.85062 2.38374 9.61177C1.6247 9.3729 1.63748 9.34118 1.63748 9.34118C-0.0243415 8.3206 -0.201717 5.93634 1.29284 4.70899C1.84323 4.25693 2.32466 4.08934 3.12047 4.0725L3.67886 4.06079V4.90856Z" fill="url(#paint1_linear_1_2731)"/>
<path fill-rule="evenodd" clip-rule="evenodd" d="M14.669 0.21184C15.408 0.429785 16.1302 1.04789 16.4659 1.75025C16.9354 2.73251 16.6339 4.237 15.8148 4.9995C15.0353 5.7252 14.8138 5.75638 10.4483 5.75638H6.43675V4.90859V4.0608H10.1879C14.6741 4.0608 14.8457 4.01698 14.8457 2.87037C14.8457 2.63377 14.5231 2.16371 14.5231 2.16371C14.5231 2.16371 14.4519 2.08037 14.1372 1.93232C13.8225 1.78428 10.4172 1.84768 10.4172 1.84768C7.65039 1.85068 6.57785 1.8945 6.42532 2.01071C5.97163 2.35661 5.91117 2.71883 5.91117 5.09562V7.45195H5.05714H4.20312V4.82837C4.20312 2.25123 4.20918 2.19397 4.54408 1.58304C4.9343 0.871419 5.45946 0.440742 6.22916 0.201536C7.05467 -0.0550179 13.7916 -0.0468003 14.669 0.21184Z" fill="url(#paint2_linear_1_2731)"/>
<path d="M20.0547 15.4012V6.21506H26.5406V7.93276H21.8892V10.5024H26.2315V12.1102H21.8892V15.4012H20.0547ZM27.1521 12.0689C27.1521 11.0383 27.4887 10.207 28.1621 9.57486C28.8402 8.93816 29.7219 8.61983 30.8074 8.61983C31.8931 8.61983 32.7746 8.93816 33.4527 9.57486C34.1397 10.207 34.4833 11.0383 34.4833 12.0689C34.4833 13.095 34.1397 13.924 33.4527 14.5561C32.7746 15.1928 31.8931 15.5112 30.8074 15.5112C29.7219 15.5112 28.8402 15.1928 28.1621 14.5561C27.4887 13.924 27.1521 13.095 27.1521 12.0689ZM28.9386 12.0689C28.9386 12.6552 29.1057 13.1179 29.4402 13.4568C29.779 13.7958 30.2349 13.9653 30.8074 13.9653C31.3846 13.9653 31.8425 13.7912 32.1816 13.4431C32.5204 13.095 32.69 12.6323 32.69 12.0552C32.69 11.4689 32.5204 11.0063 32.1816 10.6673C31.8471 10.3238 31.3983 10.152 30.8349 10.152C30.2577 10.152 29.7974 10.3284 29.4538 10.681C29.1104 11.0292 28.9386 11.4918 28.9386 12.0689ZM39.4026 8.63356C39.5629 8.63356 39.666 8.63814 39.712 8.64732V10.31H39.3753C38.1935 10.31 37.6026 10.9948 37.6026 12.3644V15.4012H35.8436V8.7435H37.3896L37.5475 9.65732C37.6666 9.34124 37.8911 9.09161 38.2208 8.9084C38.5508 8.72517 38.9447 8.63356 39.4026 8.63356ZM47.0636 11.6292C47.0636 11.9361 47.0451 12.2086 47.0087 12.4468H42.1853C42.2128 12.9323 42.4213 13.3125 42.8107 13.5874C43.2 13.8576 43.7313 13.9927 44.4046 13.9927C45.3573 13.9927 46.1749 13.7912 46.8575 13.3881V14.9821C46.1475 15.344 45.2543 15.5249 44.1779 15.5249C42.987 15.5249 42.064 15.2112 41.4089 14.5836C40.7447 13.9469 40.4126 13.1087 40.4126 12.0689C40.4126 11.0337 40.7265 10.2024 41.354 9.57486C41.9907 8.93816 42.8243 8.61983 43.8549 8.61983C44.8215 8.61983 45.5955 8.89695 46.1772 9.45118C46.7681 10.0009 47.0636 10.7269 47.0636 11.6292ZM42.2265 11.2376H45.3046C45.2772 10.9032 45.1261 10.6352 44.8512 10.4337C44.5764 10.2276 44.2306 10.1245 43.8137 10.1245C43.397 10.1245 43.0464 10.2253 42.7625 10.4268C42.4831 10.6284 42.3044 10.8986 42.2265 11.2376ZM49.5438 15.4012V10.2207H47.8399V8.7435H49.5438V6.9571L51.2892 6.84716V8.7435H52.9998V10.2207H51.2892V15.4012H49.5438ZM54.161 15.4012V5.90588H55.9063V9.56111C56.1031 9.26339 56.3848 9.03207 56.7512 8.86716C57.1178 8.70228 57.5117 8.61983 57.933 8.61983C58.7208 8.61983 59.3256 8.83968 59.7469 9.27942C60.1684 9.71914 60.379 10.3329 60.379 11.1208V15.4012H58.6202V11.43C58.6202 10.5597 58.2078 10.1245 57.3833 10.1245C56.9163 10.1245 56.5521 10.2665 56.2909 10.5505C56.0345 10.8299 55.9063 11.1986 55.9063 11.6567V15.4012H54.161ZM61.7256 12.0689C61.7256 11.0383 62.0625 10.207 62.7358 9.57486C63.4137 8.93816 64.2955 8.61983 65.3809 8.61983C66.4666 8.61983 67.3482 8.93816 68.0263 9.57486C68.7133 10.207 69.0569 11.0383 69.0569 12.0689C69.0569 13.095 68.7133 13.924 68.0263 14.5561C67.3482 15.1928 66.4666 15.5112 65.3809 15.5112C64.2955 15.5112 63.4137 15.1928 62.7358 14.5561C62.0625 13.924 61.7256 13.095 61.7256 12.0689ZM63.5122 12.0689C63.5122 12.6552 63.6792 13.1179 64.0137 13.4568C64.3527 13.7958 64.8085 13.9653 65.3809 13.9653C65.9582 13.9653 66.4161 13.7912 66.7551 13.4431C67.0942 13.095 67.2636 12.6323 67.2636 12.0552C67.2636 11.4689 67.0942 11.0063 66.7551 10.6673C66.4206 10.3238 65.9718 10.152 65.4085 10.152C64.8313 10.152 64.371 10.3284 64.0274 10.681C63.684 11.0292 63.5122 11.4918 63.5122 12.0689ZM76.6215 8.7435V15.4012H75.007L74.8625 14.5699C74.6655 14.8584 74.3794 15.0898 74.0037 15.2638C73.6282 15.4379 73.2159 15.5249 72.7671 15.5249C72.0113 15.5249 71.425 15.3073 71.008 14.8722C70.5959 14.4371 70.3898 13.8485 70.3898 13.1064V8.7435H72.1486V12.6873C72.1486 13.0766 72.2449 13.3973 72.4371 13.6492C72.6341 13.8966 72.9501 14.0202 73.3853 14.0202C73.8434 14.0202 74.2031 13.8828 74.464 13.608C74.7297 13.3332 74.8625 12.9782 74.8625 12.543V8.7435H76.6215ZM78.0369 11.9796C78.0369 10.9765 78.346 10.1657 78.9645 9.54738C79.5966 8.92901 80.4072 8.61983 81.3966 8.61983C82.418 8.61983 83.1922 8.91068 83.7189 9.49241L83.8013 8.7435H85.3404V14.5561C85.3404 15.6692 84.9877 16.5281 84.2825 17.1327C83.5816 17.7419 82.6104 18.051 81.3692 18.0602C80.3569 18.074 79.4796 17.9091 78.7378 17.5655V15.9372C79.5484 16.3311 80.3753 16.5281 81.218 16.5281C81.9462 16.5281 82.5235 16.3746 82.9495 16.0677C83.3801 15.7654 83.5953 15.3554 83.5953 14.8378V14.2882C83.3707 14.5951 83.048 14.8378 82.6265 15.0165C82.205 15.1905 81.7402 15.2776 81.2317 15.2776C80.2608 15.2776 79.482 14.9707 78.8957 14.3569C78.3232 13.7568 78.0369 12.9644 78.0369 11.9796ZM83.5953 11.9796V11.8422C83.5953 11.3292 83.4167 10.9146 83.0595 10.5986C82.7068 10.2825 82.251 10.1245 81.692 10.1245C81.1471 10.1245 80.6981 10.2917 80.3454 10.6261C79.9972 10.9605 79.8232 11.3979 79.8232 11.9384C79.8232 12.4835 79.9926 12.9255 80.3317 13.2645C80.6798 13.5988 81.1287 13.766 81.6783 13.766C82.2371 13.766 82.6929 13.6034 83.0456 13.2782C83.4122 12.9392 83.5953 12.5064 83.5953 11.9796ZM87.1543 15.4012V5.90588H88.8996V9.56111C89.0966 9.26339 89.3781 9.03207 89.7445 8.86716C90.1111 8.70228 90.505 8.61983 90.9263 8.61983C91.7141 8.61983 92.3189 8.83968 92.7402 9.27942C93.1616 9.71914 93.3723 10.3329 93.3723 11.1208V15.4012H91.6135V11.43C91.6135 10.5597 91.2011 10.1245 90.3766 10.1245C89.9096 10.1245 89.5454 10.2665 89.2842 10.5505C89.0278 10.8299 88.8996 11.1986 88.8996 11.6567V15.4012H87.1543ZM96.1549 15.4012V10.2207H94.451V8.7435H96.1549V6.9571L97.9002 6.84716V8.7435H99.6109V10.2207H97.9002V15.4012H96.1549Z" fill="#2B0866"/>
</g>
<defs>
<linearGradient id="paint0_linear_1_2731" x1="2.96862" y1="10.3214" x2="2.96862" y2="21.668" gradientUnits="userSpaceOnUse">
<stop stop-color="#C539F8"/>
<stop offset="1" stop-color="#913FF3"/>
</linearGradient>
<linearGradient id="paint1_linear_1_2731" x1="1.09021" y1="4.9617" x2="12.8352" y2="13.5584" gradientUnits="userSpaceOnUse">
<stop stop-color="#348EF6"/>
<stop offset="0.65625" stop-color="#2AD4E6"/>
<stop offset="1" stop-color="#4AA3EB"/>
</linearGradient>
<linearGradient id="paint2_linear_1_2731" x1="4.19083" y1="5.64739" x2="12.5713" y2="3.34724" gradientUnits="userSpaceOnUse">
<stop stop-color="#9B19FF"/>
<stop offset="1" stop-color="#3378F0"/>
</linearGradient>
<clipPath id="clip0_1_2731">
<rect width="100" height="21.692" fill="white"/>
</clipPath>
</defs>
</svg>

<svg xmlns="http://www.w3.org/2000/svg" width="290.909" height="64" fill="none" viewBox="0 0 100 22"><g clip-path="url(#a)"><path fill="url(#b)" fill-rule="evenodd" d="M5.913 14.854c-.002 4.49-.005 4.538-.312 5.195-.709 1.51-2.38 2.047-3.907 1.255-.512-.265-.811-.537-1.1-1 0 0-.269-.332-.396-.636-.127-.305-.17-1.68-.174-2.759-.003-1.13 0-2.323.174-2.89.086-.28.397-.637.397-.637.506-.813 1.494-1.365 2.443-1.365h.642v1.696h-.4c-.486 0-1.115.304-1.226.592-.045.117-.082 1.288-.082 2.604 0 0-.15 2.045 0 2.304.15.26.346.36.346.36.46.358.996.385 1.449 0 0 0 .113-.058.313-.36.201-.301.098-4.446.098-4.446l.038-4.446h1.698l-.001 4.533Z" clip-rule="evenodd"/><path fill="url(#c)" fill-rule="evenodd" d="M3.679 4.909c0 .803-.016.847-.309.847-.488 0-1.13.267-1.27.527-.232.43-.15 1.103.168 1.4.29.27.417.279 4.832.317 0 0 3.484.075 4.15.128.666.054 1.038.244 1.038.244.912.466 1.41 1.203 1.481 2.196.069.935-.13 1.581-.676 2.198-.753.852-1.133.94-4.06.944l-2.595.002V12.018h2.44s2.14.014 2.372-.074c.233-.088.454-.307.454-.307.454-.451.504-1.007.133-1.463 0 0-.183-.16-.449-.225S6.932 9.8 6.932 9.8s-3.79.05-4.548-.188c-.76-.24-.747-.27-.747-.27C-.024 8.32-.202 5.935 1.293 4.708c.55-.452 1.032-.62 1.827-.636l.559-.012v.848Z" clip-rule="evenodd"/><path fill="url(#d)" fill-rule="evenodd" d="M14.669.212c.739.218 1.461.836 1.797 1.538.47.983.168 2.487-.651 3.25-.78.725-1.001.756-5.367.756H6.437V4.061h3.75c4.487 0 4.659-.044 4.659-1.19 0-.237-.323-.707-.323-.707s-.071-.084-.386-.232c-.315-.148-3.72-.084-3.72-.084-2.767.003-3.84.046-3.992.163-.453.346-.514.708-.514 3.085v2.356H4.203V4.828c0-2.577.006-2.634.341-3.245C4.934.871 5.46.441 6.23.202c.826-.257 7.563-.249 8.44.01Z" clip-rule="evenodd"/><path fill="#2B0866" d="M20.055 15.401V6.215h6.486v1.718h-4.652v2.57h4.343v1.607h-4.343v3.291h-1.834Zm7.097-3.332c0-1.03.337-1.862 1.01-2.494.678-.637 1.56-.955 2.645-.955 1.086 0 1.968.318 2.646.955.687.632 1.03 1.463 1.03 2.494 0 1.026-.343 1.855-1.03 2.487-.678.637-1.56.955-2.646.955-1.085 0-1.967-.318-2.645-.955-.673-.632-1.01-1.461-1.01-2.487Zm1.787 0c0 .586.167 1.049.501 1.388.339.339.795.508 1.367.508.578 0 1.036-.174 1.375-.522.338-.348.508-.81.508-1.388 0-.586-.17-1.049-.508-1.388-.335-.343-.784-.515-1.347-.515-.577 0-1.038.176-1.381.529-.344.348-.515.81-.515 1.388Zm10.464-3.435c.16 0 .263.004.309.013v1.663h-.337c-1.181 0-1.772.685-1.772 2.054v3.037h-1.76V8.743h1.547l.157.914c.12-.316.344-.565.674-.749.33-.183.724-.274 1.182-.274Zm7.66 2.995c0 .307-.018.58-.054.818h-4.824c.028.485.236.866.626 1.14.389.27.92.406 1.594.406.952 0 1.77-.202 2.453-.605v1.594c-.71.362-1.604.543-2.68.543-1.191 0-2.114-.314-2.77-.941-.663-.637-.995-1.475-.995-2.515 0-1.035.314-1.867.941-2.494.637-.637 1.47-.955 2.5-.955.968 0 1.742.277 2.323.831.591.55.887 1.276.887 2.178Zm-4.837-.391h3.079a1.064 1.064 0 0 0-.454-.804c-.275-.206-.62-.31-1.037-.31-.417 0-.768.101-1.051.303-.28.201-.459.472-.536.81Zm7.318 4.163v-5.18H47.84V8.743h1.704V6.957l1.745-.11v1.896H53v1.478h-1.71v5.18h-1.745Zm4.617 0V5.906h1.745V9.56c.197-.298.479-.529.845-.694.367-.165.76-.247 1.182-.247.788 0 1.393.22 1.814.66.421.44.632 1.053.632 1.84v4.281H58.62V11.43c0-.87-.412-1.306-1.237-1.306-.467 0-.83.143-1.092.426-.256.28-.385.649-.385 1.107V15.4h-1.745Zm7.565-3.332c0-1.03.337-1.862 1.01-2.494.678-.637 1.56-.955 2.645-.955 1.086 0 1.967.318 2.645.955.687.632 1.03 1.463 1.03 2.494 0 1.026-.343 1.855-1.03 2.487-.678.637-1.56.955-2.645.955s-1.967-.318-2.645-.955c-.673-.632-1.01-1.461-1.01-2.487Zm1.786 0c0 .586.167 1.049.502 1.388.339.339.794.508 1.367.508.577 0 1.035-.174 1.374-.522.34-.348.509-.81.509-1.388 0-.586-.17-1.049-.509-1.388-.334-.343-.783-.515-1.346-.515-.578 0-1.038.176-1.382.529-.343.348-.515.81-.515 1.388Zm13.11-3.326v6.658h-1.615l-.145-.831c-.197.288-.483.52-.858.694a2.904 2.904 0 0 1-1.237.26c-.756 0-1.342-.217-1.759-.652-.412-.435-.618-1.024-.618-1.766V8.743h1.759v3.944c0 .39.096.71.288.962.197.248.513.371.948.371.458 0 .818-.137 1.079-.412.266-.275.398-.63.398-1.065v-3.8h1.76Zm1.415 3.237c0-1.004.309-1.814.927-2.433.633-.618 1.443-.927 2.433-.927 1.021 0 1.795.29 2.322.872l.082-.749h1.54v5.813c0 1.113-.353 1.972-1.058 2.577-.701.609-1.673.918-2.914.927-1.012.014-1.89-.15-2.631-.494v-1.629c.81.394 1.637.591 2.48.591.728 0 1.305-.153 1.731-.46.431-.303.646-.713.646-1.23v-.55c-.224.307-.547.55-.969.729a3.62 3.62 0 0 1-1.394.26c-.971 0-1.75-.306-2.336-.92-.573-.6-.86-1.393-.86-2.377Zm5.558 0v-.138c0-.513-.178-.927-.535-1.243-.353-.316-.809-.475-1.368-.475-.545 0-.994.168-1.347.502-.348.335-.522.772-.522 1.312 0 .545.17.987.509 1.326.348.335.797.502 1.346.502.56 0 1.015-.163 1.368-.488.366-.339.55-.772.55-1.298Zm3.56 3.421V5.906H88.9V9.56c.197-.298.478-.529.844-.694.367-.165.761-.247 1.182-.247.788 0 1.393.22 1.814.66.422.44.632 1.053.632 1.84v4.281h-1.758V11.43c0-.87-.413-1.306-1.237-1.306-.467 0-.832.143-1.093.426-.256.28-.384.649-.384 1.107V15.4h-1.746Zm9 0v-5.18H94.45V8.743h1.704V6.957l1.745-.11v1.896h1.71v1.478H97.9v5.18h-1.745Z"/></g><defs><linearGradient id="b" x1="2.969" x2="2.969" y1="10.321" y2="21.668" gradientUnits="userSpaceOnUse"><stop stop-color="#C539F8"/><stop offset="1" stop-color="#913FF3"/></linearGradient><linearGradient id="c" x1="1.09" x2="12.835" y1="4.962" y2="13.558" gradientUnits="userSpaceOnUse"><stop stop-color="#348EF6"/><stop offset=".656" stop-color="#2AD4E6"/><stop offset="1" stop-color="#4AA3EB"/></linearGradient><linearGradient id="d" x1="4.191" x2="12.571" y1="5.647" y2="3.347" gradientUnits="userSpaceOnUse"><stop stop-color="#9B19FF"/><stop offset="1" stop-color="#3378F0"/></linearGradient><clipPath id="a"><path fill="#fff" d="M0 0h100v21.692H0z"/></clipPath></defs></svg>
